X:1
T:Sicilian Mariners, 87.87.87
T:Sicilian melody, 1794
T:Sicilian Mariners, 87.87.87
T:Public Domain
C:Sicilian melody, 1794
Z:Public Domain
%%score ( 1 2 ) ( 3 4 )
L:1/8
M:4/4
K:Eb
V:1 treble 
V:2 treble 
V:3 bass 
V:4 bass 
V:1
 [EB]2 [Ec]2 (BA)(GA) | [EB]2 [Ec]2 (BA) [EG]2 | [GB]2 [FB]2 [Fc]2 ([Fd][Ee]) | [Fd]2 (FE) [DB]4 | %4
 [EB]2 [Ec]2 (BA)(GA) | [EB]2 [Ec]2 (BA) [EG]2 | [GB]2 [FB]2 [Fc]2 ([Fd][Ee]) | [Fd]2 (FE) [DB]4 | %8
 ([DF][EG])([DF][EG]) [EA]2 [DA]2 | ([EG][FA])(GA) [EB]2 [DB]2 | (ed)(cB) (ec)([EB][FA]) | %11
 [EG]2 [DF]2 [B,E]4 |] %12
V:2
 x4 E2 E2 | x4 E2 x2 | x8 | x2 c2 x4 | x4 E2 E2 | x4 E2 x2 | x8 | x2 c2 x4 | x8 | x2 E2 x4 | %10
 E2 E2 E2 x2 | x8 |] %12
V:3
 [E,G,]2 [E,A,]2 (G,F,)(E,F,) | [E,G,]2 [A,,A,]2 (G,F,) E,2 | [E,B,]2 [D,B,]2 [F,=A,]2 (B,,G,) | %3
 [F,B,]2 [F,,=A,]2 [B,,B,]4 | [E,G,]2 [E,A,]2 (G,F,)(E,F,) | [E,G,]2 [A,,A,]2 (G,F,) E,2 | %6
 [E,B,]2 [D,B,]2 [F,=A,]2 (B,,G,) | [F,B,]2 [F,,=A,]2 [B,,B,]4 | B,2 (A,G,) [F,C]2 [B,,B,]2 | %9
 [E,B,]2 (E,F,) [G,E]2 [F,A,]2 | (CB,)(A,G,) (CA,)([G,B,][A,C]) | [B,,B,]2 [B,,A,]2 [E,G,]4 |] %12
V:4
 x4 E,2 E,2 | x4 E,2 E,2 | x6 B,2 | x8 | x4 E,2 E,2 | x4 E,2 x2 | x6 B,2 | x8 | B,,4 B,2 x2 | %9
 x2 B,2 x4 | E,2 E,2 E,2 x2 | x8 |] %12

